packages/icons/web/add_person_large.svg

<svg width="24" height="24" viewBox="0 0 24 24" fill="none" xmlns="http://www.w3.org/2000/svg">
<path fill-rule="evenodd" clip-rule="evenodd" d="M11.5 4C10.6716 4 10 4.67157 10 5.5C10 6.32843 10.6716 7 11.5 7C12.3284 7 13 6.32843 13 5.5C13 4.67157 12.3284 4 11.5 4ZM8 5.5C8 3.567 9.567 2 11.5 2C13.433 2 15 3.567 15 5.5C15 7.433 13.433 9 11.5 9C9.567 9 8 7.433 8 5.5Z" fill="#212933"/>
<path fill-rule="evenodd" clip-rule="evenodd" d="M5 16.5C5 12.9101 7.91015 10 11.5 10C13.3625 10 15.0433 10.7846 16.2271 12.0386C16.6063 12.4402 16.5881 13.0731 16.1865 13.4522C15.7849 13.8313 15.152 13.8131 14.7729 13.4115C13.9511 12.5411 12.7896 12 11.5 12C9.01472 12 7 14.0147 7 16.5V17.5H11.5C12.0523 17.5 12.5 17.9477 12.5 18.5C12.5 19.0523 12.0523 19.5 11.5 19.5H7C5.89543 19.5 5 18.6046 5 17.5V16.5Z" fill="#212933"/>
<path fill-rule="evenodd" clip-rule="evenodd" d="M14 18.5C14 17.9477 14.4477 17.5 15 17.5H20C20.5523 17.5 21 17.9477 21 18.5C21 19.0523 20.5523 19.5 20 19.5H15C14.4477 19.5 14 19.0523 14 18.5Z" fill="#212933"/>
<path fill-rule="evenodd" clip-rule="evenodd" d="M17.5 15C18.0523 15 18.5 15.4477 18.5 16V21C18.5 21.5523 18.0523 22 17.5 22C16.9477 22 16.5 21.5523 16.5 21V16C16.5 15.4477 16.9477 15 17.5 15Z" fill="#212933"/>
</svg>

<svg width="24" height="24" fill="none" xmlns="http://www.w3.org/2000/svg">
    <path fill-rule="evenodd" clip-rule="evenodd" d="M11.5 4a1.5 1.5 0 100 3 1.5 1.5 0 000-3zM8 5.5a3.5 3.5 0 117 0 3.5 3.5 0 01-7 0zm-3 11a6.5 6.5 0 0111.227-4.461 1 1 0 11-1.454 1.373A4.5 4.5 0 007 16.5v1h4.5a1 1 0 110 2H7a2 2 0 01-2-2v-1zm9 2a1 1 0 011-1h5a1 1 0 110 2h-5a1 1 0 01-1-1z" fill="currentColor"/>
    <path fill-rule="evenodd" clip-rule="evenodd" d="M17.5 15a1 1 0 011 1v5a1 1 0 11-2 0v-5a1 1 0 011-1z" fill="currentColor"/>
</svg>
